public/avatar/item0/14.svg

<svg xmlns:xlink="http://www.w3.org/1999/xlink" height="58.65" width="49.15" xmlns="http://www.w3.org/2000/svg"><use height="38.95" transform="translate(9.95 19.7)" width="28.8" xlink:href="#a"/><defs><g id="a"><path d="M11.6 18.2q1.55 0 1.3 1.65l-2.25 3.8q-2.35 3.9-2.8 5.3-.3 1.05-.75 5.15-.55 3.6-1.6 3.6-1.7 0-1.3-2.1 0-4.75 1.7-8.9.75-1.75 2.75-4.9 2.25-3.6 2.95-3.6m-23.9-1.7q.85 0 2.95 4.3l2.9 6.1q.9 1.75 1.5 5.35l1.15 5.2-.05.45-2.2-2.05-1.2-2.3-.2-1q-.3-1.85-1.15-4.2-4.95-9.4-4.95-10.35 0-1.5 1.25-1.5" fill="#282639" fill-opacity=".302" fill-rule="evenodd" transform="translate(14.15 -1.6)"/><path d="M.4 40.05q-3.9 0-5.35-4.55-.95-5.4-1.55-7.15-.55-1.6-3.6-5.65-2.9-3.8-3.4-5.85-.5-2.2.5-4.6 1.15-3 1.2-4.1.15-2.45 3-4.2 3-1.85 7.6-1.85h2.8q4.6 0 7.65 1.85 2.8 1.75 2.95 4.2.05 1.15 1.3 4 1 2.3.5 4.5-.45 2.05-3.35 5.85-3.1 4.05-3.65 5.65-.6 1.75-1.4 7.25-1.3 4.65-5.2 4.65" fill="#fefae7" fill-rule="evenodd" transform="translate(14.15 -1.6)"/><path d="M9.25 3.95q2.8 1.75 2.95 4.2.05 1.15 1.3 4 1 2.3.5 4.5-.45 2.05-3.35 5.85-3.1 4.05-3.65 5.65-.6 1.75-1.4 7.25-1.3 4.65-5.2 4.65-3.9 0-5.35-4.55-.95-5.4-1.55-7.15-.55-1.6-3.6-5.65-2.9-3.8-3.4-5.85-.5-2.2.5-4.6 1.15-3 1.2-4.1.15-2.45 3-4.2 3-1.85 7.6-1.85h2.8q4.6 0 7.65 1.85Z" fill="none" stroke="#403e3a" stroke-linecap="round" stroke-linejoin="round" transform="translate(14.15 -1.6)"/><path d="M11 17.4q-2.55 1.05-5.4-1.05-2.95-2.15-3.85-6-.5-1.95.15-2.95.65-1.05 1.55.3l2.5 4.05q2.15 2.55 5 2.35 1.7-.15 1.55 1.3-.15 1.45-1.5 2m-21.55 0q-1.35-.55-1.5-2-.2-1.45 1.55-1.3 2.85.2 5-2.35L-3 7.7q.85-1.4 1.55-.3.65 1.05.15 2.95-.9 3.85-3.85 6-2.85 2.1-5.4 1.05m10.4-1.25q1.35 0 1.85 3.15H-2l.4-1.55q.6-1.6 1.45-1.6m.35 21.8q-2.95 0-2.75-3.95.75-4.4.6-5.3-.1-.75-1.35-2.7-1.05-1.55-.65-2.05 2.05-2.35 3.9-2.4 1.25-.05 2.65.9 1.2.8 1.45 1.4.25.55-.55 2.1-1 1.9-1.05 3-.05 1.15.6 5.35.1 3.65-2.85 3.65" fill-rule="evenodd" transform="translate(14.15 -1.6)"/><path d="m6.1 6.25 1.1.1q1.3.25 2 1.1l3.4 4.8q-1.35 0-3.5-1.35-1.3-.85-2.3-2.85l-.7-1.8m-3.8 11.4-.6-2.8h.35q1.4 2.65 3.9 4 1.85 1 3 .85 1.6-.25 2.95-.9-.6.3-1.95 1.9l-2.9 3q.25-.75-3-4-1.25-1.15-1.75-2.05" fill="#b2aea8" fill-rule="evenodd" transform="translate(14.15 -1.6)"/><path d="m2.2 15.15.05 2.45-1.3-2.45.25-2.25 1 2.25m3 8.8 1.1.9-1.75 4.5v2.1q-.75-2-.6-3.5l1.25-4" fill="#9d9a94" fill-rule="evenodd" transform="translate(14.15 -1.6)"/></g></defs></svg>

<?xml version="1.0" encoding="UTF-8" standalone="no"?>
<svg xmlns:xlink="http://www.w3.org/1999/xlink" height="58.65px" width="49.15px" xmlns="http://www.w3.org/2000/svg">
  <g transform="matrix(1.0, 0.0, 0.0, 1.0, 24.1, 18.1)">
    <use height="38.95" transform="matrix(1.0, 0.0, 0.0, 1.0, -14.15, 1.6)" width="28.8" xlink:href="#shape0"/>
  </g>
  <defs>
    <g id="shape0" transform="matrix(1.0, 0.0, 0.0, 1.0, 14.15, -1.6)">
      <path d="M11.6 18.2 Q13.15 18.2 12.9 19.85 L10.65 23.65 Q8.3 27.55 7.85 28.95 7.55 30.0 7.1 34.1 6.55 37.7 5.5 37.7 3.8 37.7 4.2 35.6 4.2 30.85 5.9 26.7 6.65 24.95 8.65 21.8 10.9 18.2 11.6 18.2 M-12.3 16.5 Q-11.45 16.5 -9.35 20.8 L-6.45 26.9 Q-5.55 28.65 -4.95 32.25 L-3.8 37.45 -3.85 37.9 -6.05 35.85 -7.25 33.55 -7.45 32.55 Q-7.75 30.7 -8.6 28.35 -13.55 18.95 -13.55 18.0 -13.55 16.5 -12.3 16.5" fill="#282639" fill-opacity="0.3019608" fill-rule="evenodd" stroke="none"/>
      <path d="M0.4 40.05 Q-3.5 40.05 -4.95 35.5 -5.9 30.1 -6.5 28.35 -7.05 26.75 -10.1 22.7 -13.0 18.9 -13.5 16.85 -14.0 14.65 -13.0 12.25 -11.85 9.25 -11.8 8.15 -11.65 5.7 -8.8 3.95 -5.8 2.1 -1.2 2.1 L1.6 2.1 Q6.2 2.1 9.25 3.95 12.05 5.7 12.2 8.15 12.25 9.3 13.5 12.15 14.5 14.45 14.0 16.65 13.55 18.7 10.65 22.5 7.55 26.55 7.0 28.15 6.4 29.9 5.6 35.4 4.3 40.05 0.4 40.05" fill="#fefae7" fill-rule="evenodd" stroke="none"/>
      <path d="M9.25 3.95 Q12.05 5.7 12.2 8.15 12.25 9.3 13.5 12.15 14.5 14.45 14.0 16.65 13.55 18.7 10.65 22.5 7.55 26.55 7.0 28.15 6.4 29.9 5.6 35.4 4.3 40.05 0.4 40.05 -3.5 40.05 -4.95 35.5 -5.9 30.1 -6.5 28.35 -7.05 26.75 -10.1 22.7 -13.0 18.9 -13.5 16.85 -14.0 14.65 -13.0 12.25 -11.85 9.25 -11.8 8.15 -11.65 5.7 -8.8 3.95 -5.8 2.1 -1.2 2.1 L1.6 2.1 Q6.2 2.1 9.25 3.95 Z" fill="none" stroke="#403e3a" stroke-linecap="round" stroke-linejoin="round" stroke-width="1.0"/>
      <path d="M11.0 17.4 Q8.45 18.45 5.6 16.35 2.65 14.2 1.75 10.35 1.25 8.4 1.9 7.4 2.55 6.35 3.45 7.7 L5.95 11.75 Q8.1 14.3 10.95 14.1 12.65 13.95 12.5 15.4 12.35 16.85 11.0 17.4" fill="#000000" fill-rule="evenodd" stroke="none"/>
      <path d="M-10.55 17.4 Q-11.9 16.85 -12.05 15.4 -12.25 13.95 -10.5 14.1 -7.65 14.3 -5.5 11.75 L-3.0 7.7 Q-2.15 6.3 -1.45 7.4 -0.8 8.45 -1.3 10.35 -2.2 14.2 -5.15 16.35 -8.0 18.45 -10.55 17.4" fill="#000000" fill-rule="evenodd" stroke="none"/>
      <path d="M-0.15 16.15 Q1.2 16.15 1.7 19.3 L-2.0 19.3 -1.6 17.75 Q-1.0 16.15 -0.15 16.15" fill="#000000" fill-rule="evenodd" stroke="none"/>
      <path d="M0.2 37.95 Q-2.75 37.95 -2.55 34.0 -1.8 29.6 -1.95 28.7 -2.05 27.95 -3.3 26.0 -4.35 24.45 -3.95 23.95 -1.9 21.6 -0.05 21.55 1.2 21.5 2.6 22.45 3.8 23.25 4.05 23.85 4.3 24.4 3.5 25.95 2.5 27.85 2.45 28.95 2.4 30.1 3.05 34.3 3.15 37.95 0.2 37.95" fill="#000000" fill-rule="evenodd" stroke="none"/>
      <path d="M6.1 6.25 L7.2 6.35 Q8.5 6.6 9.2 7.45 L12.6 12.25 Q11.25 12.25 9.1 10.9 7.8 10.05 6.8 8.05 L6.1 6.25" fill="#b2aea8" fill-rule="evenodd" stroke="none"/>
      <path d="M2.3 17.65 L1.7 14.85 2.05 14.85 Q3.45 17.5 5.95 18.85 7.8 19.85 8.95 19.7 10.55 19.45 11.9 18.8 11.3 19.1 9.95 20.7 L7.05 23.7 Q7.3 22.95 4.05 19.7 2.8 18.55 2.3 17.65" fill="#b2aea8" fill-rule="evenodd" stroke="none"/>
      <path d="M2.2 15.15 L2.25 17.6 0.95 15.15 1.2 12.9 2.2 15.15" fill="#9d9a94" fill-rule="evenodd" stroke="none"/>
      <path d="M5.2 23.95 L6.3 24.85 4.55 29.35 4.55 31.45 Q3.8 29.45 3.95 27.95 L5.2 23.95" fill="#9d9a94" fill-rule="evenodd" stroke="none"/>
    </g>
  </defs>
</svg>
